!!!ONR: No. 48
!! From Harold Courlander, "Haiti Singing"
!! Chapel Hill: University of North Carolina Press, 1939
!! Copyright University of North Carolina Press
!!!ENC: D. Huron
**kern
*clefG2
*k[]
*M2/4
=1-
12ee
12ee
12ee
8.gg
16gg
=
8ee
4.ee
=
12b
12b
12b
8.dd
16dd
=
8b
4.b
=
12ee
12ee
12ee
8.gg
16gg
=
8ee
4.ee
=
12b
12b
12b
8a
8b
=
8g
4.g
=
8b
8ee
16g
16b
[8dd
=
8dd]
16b
16ee
8b
8dd
=
4.g
8a
=
8b
8a
8g
8e
=
4.e
8a
=
8a
8b-
8b-
8g
=
4a
4a
==
*-
